ix/bitcoin-card_bold.svg

<svg viewBox="0 0 24 24" fill="none" xmlns="http://www.w3.org/2000/svg" height="1em" width="1em">
  <path d="M17.38 10.75C17.38 10.53 17.14 10.25 16.88 10.25H14.94H14.5V11.25H16.88C17.15 11.25 17.38 11.03 17.38 10.75Z" fill="#292D32"/>
  <path d="M17.32 12.75H16.87H14.5V13.75H14.94H17.32C17.69 13.75 18 13.52 18 13.25C18 12.98 17.69 12.75 17.32 12.75Z" fill="#292D32"/>
  <path d="M17.85 3.39844H6.15C3.86 3.39844 2 5.24844 2 7.53844V16.4584C2 18.7484 3.86 20.5984 6.15 20.5984H17.85C20.14 20.5984 22 18.7484 22 16.4584V7.53844C22 5.24844 20.14 3.39844 17.85 3.39844ZM9.25 12.7484H5.25C4.84 12.7484 4.5 12.4084 4.5 11.9984C4.5 11.5884 4.84 11.2484 5.25 11.2484H9.25C9.66 11.2484 10 11.5884 10 11.9984C10 12.4084 9.66 12.7484 9.25 12.7484ZM17.32 15.2484H16.26V15.7484C16.26 16.1584 15.92 16.4984 15.51 16.4984C15.1 16.4984 14.76 16.1584 14.76 15.7484V15.2484H13.75H12.75C12.34 15.2484 12 14.9084 12 14.4984C12 14.0884 12.34 13.7484 12.75 13.7484H13V11.9984V10.2484H12.75C12.34 10.2484 12 9.90844 12 9.49844C12 9.08844 12.34 8.74844 12.75 8.74844H13.75H14.76V8.24844C14.76 7.83844 15.1 7.49844 15.51 7.49844C15.92 7.49844 16.26 7.83844 16.26 8.24844V8.74844H16.87C17.94 8.74844 18.87 9.67844 18.87 10.7484C18.87 11.0784 18.78 11.3884 18.64 11.6684C19.16 12.0384 19.5 12.6084 19.5 13.2484C19.5 14.3484 18.52 15.2484 17.32 15.2484Z" fill="#292D32"/>
</svg>

<svg viewBox="0 0 24 24" fill="none" xmlns="http://www.w3.org/2000/svg" height="1em" width="1em">
  <path d="M17.38 10.75c0-.22-.24-.5-.5-.5H14.5v1h2.38c.27 0 .5-.22.5-.5Zm-.06 2H14.5v1h2.82c.37 0 .68-.23.68-.5s-.31-.5-.68-.5Z" fill="#292D32"/>
  <path d="M17.85 3.398H6.15C3.86 3.398 2 5.248 2 7.538v8.92c0 2.29 1.86 4.14 4.15 4.14h11.7c2.29 0 4.15-1.85 4.15-4.14v-8.92c0-2.29-1.86-4.14-4.15-4.14Zm-8.6 9.35h-4c-.41 0-.75-.34-.75-.75s.34-.75.75-.75h4c.41 0 .75.34.75.75s-.34.75-.75.75Zm8.07 2.5h-1.06v.5c0 .41-.34.75-.75.75s-.75-.34-.75-.75v-.5h-2.01c-.41 0-.75-.34-.75-.75s.34-.75.75-.75H13v-3.5h-.25c-.41 0-.75-.34-.75-.75s.34-.75.75-.75h2.01v-.5c0-.41.34-.75.75-.75s.75.34.75.75v.5h.61c1.07 0 2 .93 2 2 0 .33-.09.64-.23.92.52.37.86.94.86 1.58 0 1.1-.98 2-2.18 2Z" fill="#292D32"/>
</svg>
